X: 285
T: Benim Serv-i Hırâmânım
C: Bolâhenk Nuri Bey
O: Turkey
F: http://compmusic.upf.edu/node/140
N: hicazkar--agirsemai--aksaksemai--benim_servi--bolahenk_nuri_bey
N: makam= hicazkar
N: form= agirsemai
N: usul= aksaksemai = 10/8
M: 10/8
L: 1/16
K: C _1/4B _7/8e _7/8A ^f
Q: 1/4=138
%%MIDI tuningsystem comma53
g4 c2g3=a_ba gfg4ab  | =agfe aggf2eed {f}edd4(3cBc  | 
w:  Ah  Be nim  *  serv_ *  *  *  i   |  *  *  *  *  hı *  râ *  *  mâ *  *  *  *  nım   | 
d4 dedc Bcde def2 {=a}g2fe  | d3c' {d'}c'_b=ag2ffe {f}edd3gf_7/8a  | 
w:  *  be *  nim  *  *  *  sen  *  *  *  nem  |  *  *  *  den  *  in *  *  cin *  *  *  *  din   SAZ  | 
g4 c2g4=fg a/_b/a/g/g4f2  | e3/2d/c2 d2e/d/e/=f/ edde dcB2 c2BA  | 
w:  *  Câ nım  yâ  *  *  *  le  lel  le  le   |  lel  *  *  le  lel  *  *  *  *  *  lel  *  li  *  vay    | 
G4 G2G3AB2 ABc4Bd  | c4 c2g3=ba3/2g/ fag4fe  | 
w:  *  Gon ca  *  de *  *  hen  SAZ  |  *  sî min  *  be *  *  *  den    | 
dcBA G2G3AB2 ABc4Bd  | c4 c2g3ba3/2g/ fag3cef  | 
w:  *  *  *  *  Gon ca  *  de *  *  hen  SAZ  |  *  sî min  *  be *  *  *  den   SAZ  | 
g4 c2g3=ffg a/_b/a/g/g3/2f/ f3/2e/e3/2d/  | \
w:  *  Hay râ *  nın  *  *  *  o *  lam   | 
d3/2c/cB cedc {d}cBBA AGG3def  | 
w:  *  *  *  *  in *  cin *  *  *  *  me  *  *  *  sen   SAZ  | 
g4 c2g4=fg a/_b/a/g/g3/2f/ f3/2e/e3/2d/  | \
w:  *  Kur bâ nın  *  *  *  o *  lam   | 
d3/2c/cB cedc {d}cBBA AGG3def  | 
w:  *  *  *  *  in *  cin *  *  *  *  me  *  *  *  sen   SAZ  | 
g4 c2g3=a_ba gfg4ab  | =agfe aggf2eed {f}edd4(3cBc  | 
w:  Ah  Be nim  *  serv_ *  *  *  i   |  *  *  *  *  hı *  râ *  *  mâ *  *  *  *  nım   | 
d4 dedc Bcde def2 {=a}g2fe  | d3c' {d'}c'_b=ag2ffe {f}edd3gf_7/8a  | 
w:  *  be *  nim  *  *  *  sen  *  *  *  nem  |  *  *  *  den  *  in *  *  cin *  *  *  *  din   SAZ  | 
g4 c2g4=fg a/_b/a/g/g4f2  | e3/2d/c2 d2e/d/e/=f/ edde dcB2 c2BA  | 
w:  *  Câ nım  yâ  *  *  *  le  lel  le  le   |  lel  *  *  le  lel  *  *  *  *  *  lel  *  li  *  vay    | 
G4 G2G3AB2 ABc4Bd  | c4 c2g3=ba3/2g/ fag4fe  | 
w:  *  Gon ca  *  de *  *  hen  SAZ  |  *  sî min  *  be *  *  *  den    | 
dcBA G2G3AB2 ABc4Bd  | c4 c2g3ba3/2g/ fag3cef  | 
w:  *  *  *  *  Gon ca  *  de *  *  hen  SAZ  |  *  sî min  *  be *  *  *  den   SAZ  | 
g4 c2g3=ffg a/_b/a/g/g3/2f/ f3/2e/e3/2d/  | \
w:  *  Hay râ *  nın  *  *  *  o *  lam   | 
d3/2c/cB cedc {d}cBBA AGG3def  | 
w:  *  *  *  *  in *  cin *  *  *  *  me  *  *  *  sen   SAZ  | 
g4 c2g4=fg a/_b/a/g/g3/2f/ f3/2e/e3/2d/  | \
w:  *  Kur bâ nın  *  *  *  o *  lam   | 
d3/2c/cB cedc {d}cBBA AGG3cBd  | 
w:  *  *  *  *  in *  cin *  *  *  *  me  *  *  *  sen   SAZ  | 
c4 G2c3de3/2d/ cBc4de  | dcBA G2AG AcBA {B}AGG4FA  | 
w:  *  Sa a *  det  *  *  *  bur  |  *  *  *  *  cu nun  *  *  *  mâ *  *  *  *  hı  SAZ  | 
G4 G2G3/2F/ E2GA GAB2 c2d2  | e4 d2ed egfe {f}edd3gfa  | 
w:  *  le tâ *  *  fet  *  *  *  mil  |  *  ki nin  *  *  *  şâ *  *  *  *  hı   SAZ  | 
g4 c2g4=fg a/_b/a/g/g4f2  | e3/2d/c2 d2e/d/e/=f/ edde dcB2 c2BA  | 
w:  *  Câ nım  yâ  *  *  *  le  lel  le  le   |  lel  *  *  le  lel  *  *  *  *  *  lel  *  li  *  vay    | 
G4 G2G3AB2 ABc4Bd  | c4 c2g3=ba3/2g/ fag4fe  | 
w:  *  Gon ca  *  de *  *  hen  SAZ  |  *  sî min  *  be *  *  *  den    | 
dcBA G2G3AB2 ABc4Bd  | c4 c2g3ba3/2g/ fag3cef  | 
w:  *  *  *  *  Gon ca  *  de *  *  hen  SAZ  |  *  sî min  *  be *  *  *  den   SAZ  | 
g4 c2g3=ffg a/_b/a/g/g3/2f/ f3/2e/e3/2d/  | \
w:  *  Hay râ *  nın  *  *  *  o *  lam   | 
d3/2c/cB cedc {d}cBBA AGG3def  | 
w:  *  *  *  *  in *  cin *  *  *  *  me  *  *  *  sen   SAZ  | 
g4 c2g4=fg a/_b/a/g/g3/2f/ f3/2e/e3/2d/  | \
w:  *  Kur bâ nın  *  *  *  o *  lam   | 
d3/2c/cB cedc {d}cBBA AGG3def  | 
w:  *  *  *  *  in *  cin *  *  *  *  me  *  *  *  sen   SAZ  | 
g4 c2g3=a_ba gfg4ab  | =agfe aggf2eed {f}edd4(3cBc  | 
w:  *  Ke rem  *  kıl  *  *  *  söy  |  *  *  *  *  le  *  bil *  *  lâ *  *  *  *  hi   | 
d4 dedc Bcde def2 {=a}g2fe  | d3c' {d'}c'_b=ag2ffe {f}edd3gf_7/8a  | 
w:  *  be *  nim  *  *  *  sen  *  *  *  nem  |  *  *  *  den  *  in *  *  cin *  *  *  *  din   SAZ  | 
g4 c2g4=fg a/_b/a/g/g4f2  | e3/2d/c2 d2e/d/e/=f/ edde dcB2 c2BA  | 
w:  *  Câ nım  yâ  *  *  *  le  lel  le  le   |  lel  *  *  le  lel  *  *  *  *  *  lel  *  li  *  vay    | 
G4 G2G3AB2 ABc4Bd  | c4 c2g3=ba3/2g/ fag4fe  | 
w:  *  Gon ca  *  de *  *  hen  SAZ  |  *  sî min  *  be *  *  *  den    | 
dcBA G2G3AB2 ABc4Bd  | c4 c2g3ba3/2g/ fag3def  | 
w:  *  *  *  *  Gon ca  *  de *  *  hen  SAZ  |  *  sî min  *  be *  *  *  den   SAZ  | 
g4 c2g3=ffg a/_b/a/g/g3/2f/ f3/2e/e3/2d/  | \
w:  *  Hay râ *  nın  *  *  *  o *  lam   | 
d3/2c/cB cedc {d}cBBA AGG3def  | 
w:  *  *  *  *  in *  cin *  *  *  *  me  *  *  *  sen   SAZ  | 
g4 c2g4=fg a/_b/a/g/g3/2f/ f3/2e/e3/2d/  | \
w:  *  Kur bâ nın  *  *  *  o *  lam   | 
d3/2c/cB cedc {d}cBBA AGG6  | 
w:  *  *  *  *  in *  cin *  *  *  *  me  *  *  *  sen   | 
|


